X: 1552
T: A Hunting We Will Go Medley
B: australian traditional tunes wiki
M:6/8
L:1/8
R: Jig
Q: 3/8=100
K:G
V:1 
D|:"G"G2GG2G|G4zA|B2BB2B|B3-B2z|d3d2e|d2BG2A|B2B "D7"A2A|"G"G3-G2D:|
"G"G<BD G<BD|GB2- Bzc|B2B "D7"A2A|"G"G3-G2D|G<BD G<BD|GB2-Bzc|B2B "D7"A2A|"G"G3-G2D||
|:d2B"D7"c2A|"G"d2B G2G|"D7"A2B cBA|"G"d2B G3|"G"d2B "D7"c2A|"G"d2BG3|"D7"A2B cBA|"G"G3-G2z:|
% abcbook-tune_id 6342d53a05ac8da094110df2


% abcbook-boost 0
% abcbook-tablature 
% abcbook-transpose 
% abcbook-lastupdated 1665324370659
% abcbook-soundfonts 
% abcbook-repeats 1
% NFF Book 2017

